X:1
T:Banks of the Deveron, The
T:Banks of the Deveron, The
T:William Christie (1778-1849)
C:William Christie (1778-1849)
L:1/8
Q:1/4=120
M:6/8
K:C
V:1 treble 
V:1
"^Slow" E/>G/ |{G} A>GE GED | (C>D)E G<DE | A>GE GED | Ccd{cd} e2 (e/>d/) |{d} (c>B)A AGE | %6
 GED (C>D)E (E<A)G (E<e)d | c2 TB{AB} A2 :: c/>d/ |{cd} e>dc gec |{e} dcd eGE |{cd} e>dc gec | %12
 (de).g a2 (Ta/>g/) |{g} e>dc gec |{e} dcd eGE | (E<A)G (E<e)d | c2 TB{AB} A2 :| %17

